X:688
T: "Der Tanz"
N: Z1369
O: Europa, Mitteleuropa, Oesterreich
R: Kinder - Lied
M: 3/8
L: 1/16
K: G
dB | G2G2G2 | A2c2
cA | F2F2F2 | G2d2
dB | G2G2G2 | A2c2
cA | F2F2F2 | G4

@@@ Tune index: 10446
